X: 8119
T: Contrary, The
R: reel
M: 4/4
K: Dmajor
(3ABc|d2 AG FDDF|EDEF GABc|d2 AG FDDF|GBAG FDDA|
d2 AG FDDF|EDEF GABc|d2 AG FDDF|GBAG FDDA:|
FABA FABA|FABA FDD2|FABA FABA|BABc dBAG|
FABA FABA|FABA FDD2|(3AAA A2 (3BBB B2|cABc d3z:|
dfff dfff|eggg eggg|faaa faaf|gfed cABc|
dfff dfff|eggg eggg|(3aaa a2 (3ggg ge|cABc d2z:|

